X: 273
M: C
L: 1/8
K: D
g | (f/e/d) (ad) bdad | (f/e/d) (af) geeg | (f/e/d) (ad) bdad | ABde fdd ||
g | (f/e/d) (ad) bdad | fdad geeg | (fa).d.f (gb)ed | aBde fdd |]


